src/pos-icons/square-off-outline.svg

<svg height="24" viewBox="0 0 24 24" width="24" xmlns="http://www.w3.org/2000/svg"><path d="m22.11 21.46-19.72-19.73-1.28 1.27 1.89 1.89v16.11h16.11l1.73 1.73zm-17.11-2.46v-12.11l12.11 12.11zm3.2-14-2-2h14.8v14.8l-2-2v-10.8z"/></svg>

<?xml version="1.0" encoding="UTF-8"?><!DOCTYPE svg PUBLIC "-//W3C//DTD SVG 1.1//EN" "http://www.w3.org/Graphics/SVG/1.1/DTD/svg11.dtd"><svg xmlns="http://www.w3.org/2000/svg" xmlns:xlink="http://www.w3.org/1999/xlink" version="1.1" id="mdi-square-off-outline" width="24" height="24" viewBox="0 0 24 24"><path d="M22.11 21.46L2.39 1.73L1.11 3L3 4.89V21H19.11L20.84 22.73L22.11 21.46M5 19V6.89L17.11 19H5M8.2 5L6.2 3H21V17.8L19 15.8V5H8.2Z" /></svg>
